X:0628
M:6/8
L:1/8
Q:3/8=120
K:D
     FGA AB=c|BGB AFA|B/c/dB c/d/ec|d3  D2:|
a/g/|fdf fdf |ece ece|fdf    fdf   |geg geg|
     fdf fdf |ece ecA|B/c/dB c/d/ec|d3  D2:|

